svg/u1f3de.svg

<svg viewBox="0 0 128 128" xmlns="http://www.w3.org/2000/svg">
  <radialGradient id="SVGID_1_" cx="48.3777" cy="86.785" gradientUnits="userSpaceOnUse" r="81.0033">
    <stop offset="0.2828" stop-color="#AFE4FE"/>
    <stop offset="0.7021" stop-color="#84D4F9"/>
    <stop offset="0.9653" stop-color="#67C9F6"/>
  </radialGradient>
  <path d="M116.62,124.26H11.32c-4.15,0-7.52-3.37-7.52-7.52V11.44c0-4.15,3.37-7.52,7.52-7.52h105.3 c4.15,0,7.52,3.37,7.52,7.52v105.3C124.15,120.89,120.78,124.26,116.62,124.26z" fill="url(#SVGID_1_)"/>
  <path d="M124.15,76.05V117c0,4.15-3.37,7.52-7.52,7.52H11.32c-4.15,0-7.52-3.37-7.52-7.52V75.65 c0,0,38.09-1,64.1-1.4C93.9,73.85,124.15,76.05,124.15,76.05z" fill="#B4D218"/>
  <path d="M106.1,124.49H11.32c-3.82,0-6.97-2.85-7.46-6.53c0,0,5.14-2.57,10.16-3.98 c5.01-1.41,19.27-5.17,18.8-11.75c-0.47-6.58-13.85-6.2-13-13.47c0.38-3.27,6.07-6.89,12.55-9.07c8.4-2.83,18.21-3.73,18.3-3.58 c0.1,0.18-3.22,4.78-1.81,9.95c1.41,5.17,7.88,8.44,19.94,11.1s24.03,5.23,31.08,14.16C106.74,120.01,106.1,124.49,106.1,124.49z" fill="#00C1ED"/>
  <radialGradient id="SVGID_2_" cx="55.2761" cy="66.733" gradientUnits="userSpaceOnUse" r="114.3006">
    <stop offset="0.3072" stop-color="#8CDBFC"/>
    <stop offset="0.4122" stop-color="#54D1F5"/>
    <stop offset="0.5139" stop-color="#23C7EE"/>
    <stop offset="0.5642" stop-color="#10C4EC"/>
  </radialGradient>
  <path d="M7.73,123.58c1.07,0.58,2.29,0.91,3.59,0.91h88.24c0,0-1.09-6.37-11.28-14.43 c-6.74-5.33-13.39-6.77-20.76-8.49C55.5,98.76,47.2,97.02,44.53,88.41c-1.58-5.12,0.66-7.95,0.35-8.42 c-0.31-0.47-19.78,3.68-19.95,8.75C24.76,94.01,37.75,93,37.7,102.16c-0.05,8.62-11.97,12.8-16.32,14.32 C11.98,119.78,7.73,123.58,7.73,123.58z" fill="url(#SVGID_2_)"/>
  <path d="M3.8,75.39l49.26,0.04l-5.24-7.95c0,0-2.43-0.84-6.36-5.24s-14.31-20.1-17.11-24.59 s-7.01-9.35-10.94-9.16c-3.93,0.19-9.61,2.52-9.61,2.52L3.8,75.39z" fill="#79A5AB"/>
  <path d="M3.79,26.33c0,0,2.35-0.63,4.9-0.49c3.55,0.19,7.56,3.31,7.56,3.31s-4.61-0.04-7.47,2.58 C6.37,33.94,3.8,37.7,3.8,37.7L3.79,26.33z" fill="#E0E0E0"/>
  <polygon points="64.08,42.75 51.1,70.74 53.05,74.72 71.44,73.3 83.07,35.25 74.14,32.85 " fill="#86B4BB"/>
  <path d="M74.51,48.83l-3.08,9.08l-1.43,10.88L104,71.72c0,0,14.48-33.09,14.41-33.32 c-0.08-0.23-15.68-22.74-15.68-22.74l-12.01,4.24l-9.83,12.53L74.51,48.83z" fill="#3E727B"/>
  <path d="M124.14,20.58c0,0-5.21-4.62-8.21-5.67c-3-1.05-14.63-1.58-14.63-1.58L91.1,17.02l-8.78,10.21 L77.06,39l-2.7,10.13c0,0,1.75,2.02,2.59-1.71c0.66-2.9,1.53-6.62,5.21-14.72s11.27-15.49,17.56-14.71 c4.92,0.61,7.24,7.79,8.36,12.97c1.13,5.18,1.69,15.32,1.69,15.32l-7.28,3.9l-4.35,12.46c0,0-0.23,1.73-0.6,4.2 c-0.38,2.48-0.38,5.18-0.38,5.18l20.19,0.68l6.79-4.87L124.14,20.58z" fill="#79A5AB"/>
  <path d="M51.18,68.23l3.15,0.45c0,0,2.48-6.23,3.6-9.08c1.13-2.85,2.03-5.1,2.85-6 c0.83-0.9,3.08-1.13,3.68-2.1c0.6-0.98,2.85-8.25,4.5-10.96c1.65-2.7,3.68-5.1,5.4-5.78c1.73-0.68,3.08-0.23,3.08-0.23 s-2.1,5.78-3.15,10.36s-2.85,13.02-2.85,13.02s1.8-0.86,2.55-1.91s0.93-2.66,1.14-4.12c1.01-7.08,2.28-10.63,3.16-13.6 c1.16-3.91,4-9.65,5.36-11.86c3.08-5,5.29-6.87,7.99-8.74c2.7-1.88,7.54-3.9,13.1-3.6c5.55,0.3,14.05,2.38,14.05,2.38 s-6.21-4.82-14.69-4.74s-14.13,3.47-18.63,8.65s-6.98,12.31-6.98,12.31s-2.63-1.73-5.93-0.98s-6.38,1.95-9.68,7.58 c-3.3,5.63-7.43,17.71-7.43,17.71L51.18,68.23z" fill="#E0E0DF"/>
  <path d="M111.66,51.05c0,0-4.65-1.2-7.13,0.6c-1.77,1.29-3.22,3.93-4.73,8.93c-1.37,4.53-2.06,5.1-2.1,4.97 c-0.18-0.54,0.59-8.53,1.5-12.17c0.68-2.7,2.54-6.94,6.68-7.88C110.53,44.44,111.51,48.42,111.66,51.05z" fill="#E0E0DF"/>
  <path d="M93.72,26.66c-1.27-0.1-1.59,1.27-1.64,5.04c-0.06,4.13-0.38,7.65-0.38,7.65s-3.08,4.42-4.05,7.27 c-0.98,2.85-1.88,5.63-2.4,8.33c-0.39,2-0.92,4.71,0.3,5.18c1.58,0.6,3.15-6.53,4.58-10.96c1.52-4.73,4.8-8.78,4.8-8.78 s0.09-4.51,0-8.19C94.89,30.93,95.05,26.76,93.72,26.66z" fill="#79A5AB"/>
  <path d="M86.29,30.71c-1.13,0.14-1.49,1.94-1.58,4.2c-0.09,2.25-0.08,3.83-0.08,3.83s-1.58,3.38-1.95,4.88 s0.83,2.18,1.88,0.9c1.05-1.28,3.3-5.48,3.3-5.48s0.08-3,0.08-4.2C87.94,33.64,88.17,30.49,86.29,30.71z" fill="#79A5AB"/>
  <path d="M14.21,41.36c-0.1,0,0.42,1.2,0.71,2.77c0.36,1.93,0.73,6.36,0.85,13.4 c0.12,7.04,0.47,14.6,0.47,14.6l5.12-1.51c0,0-0.17-10.65-0.76-16.17s-1.42-8.35-2.91-10.75C16.98,42.56,15.13,41.34,14.21,41.36z" fill="#ACE4FE"/>
  <path d="M16.78,50.62c0.93-0.12,0.92,1.74,0.99,4.83c0.06,2.68,0.17,4.3-0.47,4.36 c-0.87,0.08-0.75-0.75-0.93-5C16.25,52.08,16.1,50.71,16.78,50.62z" fill="#FCFDFE"/>
  <path d="M18.86,52.47c-0.58,0.13-0.23,2.03-0.12,5.29c0.12,3.49-0.12,5.7,0.99,5.7 c1.05,0,0.58-2.09,0.47-5.93C20.09,54.16,19.9,52.24,18.86,52.47z" fill="#FCFDFE"/>
  <path d="M15.6,72.37c0,0,1.11-1.63,2.5-1.92c1.4-0.29,1.92-0.12,1.92-0.12s0.81-2.33,3.9-2.27 c3.08,0.06,4.13,4.36,4.13,4.36l-12.39,1.63L15.6,72.37z" fill="#FCFDFE"/>
  <path d="M17.24,76.21c0,0,24.82-0.65,39.97-0.52c15.15,0.13,31.22,0.13,31.22,0.13s-8.62-17.24-9.28-17.11 c-0.65,0.13-5.75,9.01-5.75,9.01s-5.55-9.64-6.07-9.9s-6.35,13.07-6.35,13.07l-2.53-3.92l-2.98,4.75l-3.88-8.43l-6.92,9.67 c0,0-1.37-0.43-3.07-0.51c-2.56-0.12-5.55,1.29-5.55,1.29s-5.49-1.83-9.28-1.83s-14.63,3-14.63,3L17.24,76.21z" fill="#0A7E1D"/>
  <path d="M50.49,61.52c0.58,0.14,1.58,2.82,1.58,2.82l-3.96,9.66l-3.45-1.01 C44.67,72.99,49.85,61.36,50.49,61.52z" fill="#02AB47"/>
  <path d="M55.46,71.75l1.02,1.97l2.82-5.43c0,0-0.85-1.57-1.04-1.56C57.86,66.76,55.46,71.75,55.46,71.75z" fill="#02AB47"/>
  <path d="M67.37,57.72c-1.09,0.05-6.39,13.14-6.39,13.14s1.4,2.04,1.52,2.06c0.76,0.11,5.95-13.53,5.95-13.53 S67.64,57.7,67.37,57.72z" fill="#02AB47"/>
  <path d="M82.64,78.76c0,0-0.46,1.19,0.28,1.38s6.25,1.01,15.15,0.64c8.91-0.37,26.07-0.73,26.07-0.73 l0.01-12.22c0,0-7.35-16.99-8.27-16.81c-0.92,0.18-7.29,15.14-7.29,15.14s-2.58-4.72-3.03-4.9c-0.46-0.18-7.68,8.78-7.68,8.78 s-4.68-13.32-5.42-13.41C91.73,56.54,82.64,78.76,82.64,78.76z" fill="#0A7E1D"/>
  <path d="M91.41,54.25c-0.82,0-6.85,14.14-7.68,16.16c-0.83,2.02-3.65,8.57-3.28,9.12 c0.37,0.55,3.8,0.82,3.8,0.82s3.89-11.32,5.54-15c1.65-3.67,3.51-7.31,3.51-7.31S92.26,54.25,91.41,54.25z" fill="#02AB47"/>
  <path d="M104.13,59.76c0.49-0.25,2.11,2.39,2.11,2.39s-6.15,10.65-6.61,10.84c-0.46,0.18-1.75-2.94-1.75-2.94 S103.02,60.31,104.13,59.76z" fill="#02AB47"/>
  <path d="M3.81,112.79c0,0,4.02,0.57,7.08-1.55c4.41-3.06,4.66-6.34,4.66-6.34s1.17,1.64,5.73,1.73 c4.56,0.09,6.52-3.79,6.42-4.32c-0.05-0.26-4.54-5.73-4.54-5.73l-5.26-10.59l0.61-2.57l-7.7-10.29l-3.04-17.9 c0,0-0.81-1.7-1.34-1.25s-2.6,4.48-2.6,4.48L3.81,112.79z" fill="#0A7E1D"/>
  <path d="M11.52,87.45c-1.78-0.18-3.49-2.69-3.85-8.95c-0.36-6.27,0.36-16.47-0.09-19.24 c-0.45-2.77-1.16-5.28-1.16-5.28s0.36-0.9,1.07,0.09s4.48,7.52,6.27,11.99c1.79,4.48,7.84,15.23,8.77,16.83 c1.62,2.78,2.87,5.13,0.72,5.22c-2.15,0.09-5.11-1.82-5.11-1.82s3.58,7.43,4.65,8.95s4.12,6,4.12,6s-0.54,1.79-3.4,0.98 c-2.86-0.81-6.21-8.18-6.98-10.16c-0.75-1.93-0.85-3.65-0.75-4.47c0.18-1.52,1.47-1.84,1.47-1.84s-1.43-1.52-2.15-2.69 c-0.72-1.16-1.52-2.77-1.52-2.77S14.21,87.72,11.52,87.45z" fill="#00AA48"/>
  <path d="M117.4,76.89c0,0-18.44,5.46-19.15,6.27c-0.72,0.81-0.81,2.33,0.9,3.04s2.58,0.2,4.21,1.25 c0.65,0.42-0.85,4.82-0.85,4.82s-7.75,2.53-7.88,3.65c-0.16,1.4,0.85,2.72,2.64,3.61c1.6,0.8,3.91,0.92,3.91,0.92 s-9.01,6.84-8.57,8.54c0.45,1.7,2.38,4.53,6.71,4.42c3.94-0.1,4.56-1.52,6.71,0.09c2.15,1.61,2.07,5.31,7.88,4.92 c4.03-0.27,5.02-2.82,7.07-3.85c1.65-0.82,3.19-0.93,3.19-0.93l-0.03-33.6L117.4,76.89z" fill="#0A7E1D"/>
  <path d="M115.34,62.57c-2.06,0.12-3.13,5.28-7.25,10.29S98.21,83.2,98.21,83.2s0.48,1.22,1.92,1.21 c2.06-0.02,3.67-1.88,5.28-1.25c1.61,0.63,1.34,3.4,3.85,3.58c2.51,0.18,5.91-3.13,8.14-3.22c2.24-0.09,2.24,2.24,4.39,2.15 c2.15-0.09,2.36-1.08,2.36-1.08v-6.82c0,0-3.34-4.37-4.69-8.22C118.12,65.7,116.87,62.48,115.34,62.57z" fill="#02AB47"/>
  <path d="M109.35,90.41c3.04,0.08,5.82-2.77,9.58-2.42c3.76,0.36,3.94,4.56,3.49,6.27 c-0.45,1.7-1.52,4.65-4.3,4.65c-2.77,0-2.86-1.61-4.56-1.43c-1.7,0.18-2.86,1.88-5.01,1.61s-3.13-2.33-4.74-2.6 s-4.21,1.25-6.27,1.16c-2.06-0.09-2.93-1.81-2.93-1.81s0.42-1.5,1.85-2.3s2.6-1.34,4.48-3.13s2.41-2.95,2.41-2.95 S106.04,90.32,109.35,90.41z" fill="#02AB47"/>
  <path d="M105.05,108.66c3.11,0,2.51,4.48,6.35,5.19c3.85,0.72,9.04-7.07,6.27-11.1 c-2.77-4.03-6.27,0.81-9.93-0.09c-3.67-0.9-3.67-2.6-6.44-2.51c-2.77,0.09-8.53,5.44-8.68,8.41c-0.09,1.79,2.77,2.66,5.55,2.24 C100.93,110.39,103.62,108.66,105.05,108.66z" fill="#02AB47"/>
  <path d="M20.34,16.11c0.07,3.53,5.69,4.39,14.98,4.47c9.29,0.07,15.12-0.72,14.98-4.18s-10.73-4.1-16.2-4.32 C28.63,11.86,20.27,12.51,20.34,16.11z" fill="#FFFFFE"/>
  <path d="M42.44,29.83c0.46,2.71,4.32,2.36,9.87,2.46c6.19,0.12,11,0.62,11.39-2.68 c0.39-3.31-7.69-2.97-10.93-2.93C49.52,26.73,41.89,26.57,42.44,29.83z" fill="#FFFFFE"/>
</svg>

<svg viewBox="0 0 128 128" xmlns="http://www.w3.org/2000/svg">
  <defs>
    <radialGradient id="SVGID_1_" cx="48.3777" cy="86.785" gradientUnits="userSpaceOnUse" r="81.0033">
      <stop offset="0.2828" stop-color="#AFE4FE"/>
      <stop offset="0.7021" stop-color="#84D4F9"/>
      <stop offset="0.9653" stop-color="#67C9F6"/>
    </radialGradient>
    <radialGradient id="SVGID_2_" cx="55.2761" cy="66.733" gradientUnits="userSpaceOnUse" r="114.3006">
      <stop offset="0.3072" stop-color="#8CDBFC"/>
      <stop offset="0.4122" stop-color="#54D1F5"/>
      <stop offset="0.5139" stop-color="#23C7EE"/>
      <stop offset="0.5642" stop-color="#10C4EC"/>
    </radialGradient>
  </defs>
  <path d="M116.62,124.26 L11.32,124.26 C7.17,124.26 3.8,120.89 3.8,116.74 L3.8,11.44 C3.8,7.29 7.17,3.92 11.32,3.92 L116.62,3.92 C120.77,3.92 124.14,7.29 124.14,11.44 L124.14,116.74 C124.15,120.89 120.78,124.26 116.62,124.26 Z" fill="url(#SVGID_1_)"/>
  <path d="M124.15,76.05 L124.15,117 C124.15,121.15 120.78,124.52 116.63,124.52 L11.32,124.52 C7.17,124.52 3.8,121.15 3.8,117 L3.8,75.65 C3.8,75.65 41.89,74.65 67.9,74.25 C93.9,73.85 124.15,76.05 124.15,76.05 Z" fill="#B4D218"/>
  <path d="M106.1,124.49 L11.32,124.49 C7.5,124.49 4.35,121.64 3.86,117.96 C3.86,117.96 9,115.39 14.02,113.98 C19.03,112.57 33.29,108.81 32.82,102.23 C32.35,95.65 18.97,96.03 19.82,88.76 C20.2,85.49 25.89,81.87 32.37,79.69 C40.77,76.86 50.58,75.96 50.67,76.11 C50.77,76.29 47.45,80.89 48.86,86.06 C50.27,91.23 56.74,94.5 68.8,97.16 C80.86,99.82 92.83,102.39 99.88,111.32 C106.74,120.01 106.1,124.49 106.1,124.49 Z" fill="#00C1ED"/>
  <path d="M7.73,123.58 C8.8,124.16 10.02,124.49 11.32,124.49 L99.56,124.49 C99.56,124.49 98.47,118.12 88.28,110.06 C81.54,104.73 74.89,103.29 67.52,101.57 C55.5,98.76 47.2,97.02 44.53,88.41 C42.95,83.29 45.19,80.46 44.88,79.99 C44.57,79.52 25.1,83.67 24.93,88.74 C24.76,94.01 37.75,93 37.7,102.16 C37.65,110.78 25.73,114.96 21.38,116.48 C11.98,119.78 7.73,123.58 7.73,123.58 Z" fill="url(#SVGID_2_)"/>
  <path d="M3.8,75.39 L53.06,75.43 L47.82,67.48 C47.82,67.48 45.39,66.64 41.46,62.24 C37.53,57.84 27.15,42.14 24.35,37.65 C21.55,33.16 17.34,28.3 13.41,28.49 C9.48,28.68 3.8,31.01 3.8,31.01 L3.8,75.39 Z" fill="#79A5AB"/>
  <path d="M3.79,26.33 C3.79,26.33 6.14,25.7 8.69,25.84 C12.24,26.03 16.25,29.15 16.25,29.15 C16.25,29.15 11.64,29.11 8.78,31.73 C6.37,33.94 3.8,37.7 3.8,37.7 L3.79,26.33 Z" fill="#E0E0E0"/>
  <path d="M64.08,42.75 L51.1,70.74 L53.05,74.72 L71.44,73.3 L83.07,35.25 L74.14,32.85 Z" fill="#86B4BB"/>
  <path d="M74.51,48.83 L71.43,57.91 L70,68.79 L104,71.72 C104,71.72 118.48,38.63 118.41,38.4 C118.33,38.17 102.73,15.66 102.73,15.66 L90.72,19.9 L80.89,32.43 L74.51,48.83 Z" fill="#3E727B"/>
  <path d="M124.14,20.58 C124.14,20.58 118.93,15.96 115.93,14.91 C112.93,13.86 101.3,13.33 101.3,13.33 L91.1,17.02 L82.32,27.23 L77.06,39 L74.36,49.13 C74.36,49.13 76.11,51.15 76.95,47.42 C77.61,44.52 78.48,40.8 82.16,32.7 C85.84,24.6 93.43,17.21 99.72,17.99 C104.64,18.6 106.96,25.78 108.08,30.96 C109.21,36.14 109.77,46.28 109.77,46.28 L102.49,50.18 L98.14,62.64 C98.14,62.64 97.91,64.37 97.54,66.84 C97.16,69.32 97.16,72.02 97.16,72.02 L117.35,72.7 L124.14,67.83 L124.14,20.58 Z" fill="#79A5AB"/>
  <path d="M51.18,68.23 L54.33,68.68 C54.33,68.68 56.81,62.45 57.93,59.6 C59.06,56.75 59.96,54.5 60.78,53.6 C61.61,52.7 63.86,52.47 64.46,51.5 C65.06,50.52 67.31,43.25 68.96,40.54 C70.61,37.84 72.64,35.44 74.36,34.76 C76.09,34.08 77.44,34.53 77.44,34.53 C77.44,34.53 75.34,40.31 74.29,44.89 C73.24,49.47 71.44,57.91 71.44,57.91 C71.44,57.91 73.24,57.05 73.99,56 C74.74,54.95 74.92,53.34 75.13,51.88 C76.14,44.8 77.41,41.25 78.29,38.28 C79.45,34.37 82.29,28.63 83.65,26.42 C86.73,21.42 88.94,19.55 91.64,17.68 C94.34,15.8 99.18,13.78 104.74,14.08 C110.29,14.38 118.79,16.46 118.79,16.46 C118.79,16.46 112.58,11.64 104.1,11.72 C95.62,11.8 89.97,15.19 85.47,20.37 C80.97,25.55 78.49,32.68 78.49,32.68 C78.49,32.68 75.86,30.95 72.56,31.7 C69.26,32.45 66.18,33.65 62.88,39.28 C59.58,44.91 55.45,56.99 55.45,56.99 L51.18,68.23 Z" fill="#E0E0DF"/>
  <path d="M111.66,51.05 C111.66,51.05 107.01,49.85 104.53,51.65 C102.76,52.94 101.31,55.58 99.8,60.58 C98.43,65.11 97.74,65.68 97.7,65.55 C97.52,65.01 98.29,57.02 99.2,53.38 C99.88,50.68 101.74,46.44 105.88,45.5 C110.53,44.44 111.51,48.42 111.66,51.05 Z" fill="#E0E0DF"/>
  <path d="M93.72,26.66 C92.45,26.56 92.13,27.93 92.08,31.7 C92.02,35.83 91.7,39.35 91.7,39.35 C91.7,39.35 88.62,43.77 87.65,46.62 C86.67,49.47 85.77,52.25 85.25,54.95 C84.86,56.95 84.33,59.66 85.55,60.13 C87.13,60.73 88.7,53.6 90.13,49.17 C91.65,44.44 94.93,40.39 94.93,40.39 C94.93,40.39 95.02,35.88 94.93,32.2 C94.89,30.93 95.05,26.76 93.72,26.66 Z" fill="#79A5AB"/>
  <path d="M86.29,30.71 C85.16,30.85 84.8,32.65 84.71,34.91 C84.62,37.16 84.63,38.74 84.63,38.74 C84.63,38.74 83.05,42.12 82.68,43.62 C82.31,45.12 83.51,45.8 84.56,44.52 C85.61,43.24 87.86,39.04 87.86,39.04 C87.86,39.04 87.94,36.04 87.94,34.84 C87.94,33.64 88.17,30.49 86.29,30.71 Z" fill="#79A5AB"/>
  <path d="M14.21,41.36 C14.11,41.36 14.63,42.56 14.92,44.13 C15.28,46.06 15.65,50.49 15.77,57.53 C15.89,64.57 16.24,72.13 16.24,72.13 L21.36,70.62 C21.36,70.62 21.19,59.97 20.6,54.45 C20.01,48.93 19.18,46.1 17.69,43.7 C16.98,42.56 15.13,41.34 14.21,41.36 Z" fill="#ACE4FE"/>
  <path d="M16.78,50.62 C17.71,50.5 17.7,52.36 17.77,55.45 C17.83,58.13 17.94,59.75 17.3,59.81 C16.43,59.89 16.55,59.06 16.37,54.81 C16.25,52.08 16.1,50.71 16.78,50.62 Z" fill="#FCFDFE"/>
  <path d="M18.86,52.47 C18.28,52.6 18.63,54.5 18.74,57.76 C18.86,61.25 18.62,63.46 19.73,63.46 C20.78,63.46 20.31,61.37 20.2,57.53 C20.09,54.16 19.9,52.24 18.86,52.47 Z" fill="#FCFDFE"/>
  <path d="M15.6,72.37 C15.6,72.37 16.71,70.74 18.1,70.45 C19.5,70.16 20.02,70.33 20.02,70.33 C20.02,70.33 20.83,68 23.92,68.06 C27,68.12 28.05,72.42 28.05,72.42 L15.66,74.05 L15.6,72.37 Z" fill="#FCFDFE"/>
  <path d="M17.24,76.21 C17.24,76.21 42.06,75.56 57.21,75.69 C72.36,75.82 88.43,75.82 88.43,75.82 C88.43,75.82 79.81,58.58 79.15,58.71 C78.5,58.84 73.4,67.72 73.4,67.72 C73.4,67.72 67.85,58.08 67.33,57.82 C66.81,57.56 60.98,70.89 60.98,70.89 L58.45,66.97 L55.47,71.72 L51.59,63.29 L44.67,72.96 C44.67,72.96 43.3,72.53 41.6,72.45 C39.04,72.33 36.05,73.74 36.05,73.74 C36.05,73.74 30.56,71.91 26.77,71.91 C22.98,71.91 12.14,74.91 12.14,74.91 L17.24,76.21 Z" fill="#0A7E1D"/>
  <path d="M50.49,61.52 C51.07,61.66 52.07,64.34 52.07,64.34 L48.11,74 L44.66,72.99 C44.67,72.99 49.85,61.36 50.49,61.52 Z" fill="#02AB47"/>
  <path d="M55.46,71.75 L56.48,73.72 L59.3,68.29 C59.3,68.29 58.45,66.72 58.26,66.73 C57.86,66.76 55.46,71.75 55.46,71.75 Z" fill="#02AB47"/>
  <path d="M67.37,57.72 C66.28,57.77 60.98,70.86 60.98,70.86 C60.98,70.86 62.38,72.9 62.5,72.92 C63.26,73.03 68.45,59.39 68.45,59.39 C68.45,59.39 67.64,57.7 67.37,57.72 Z" fill="#02AB47"/>
  <path d="M82.64,78.76 C82.64,78.76 82.18,79.95 82.92,80.14 C83.66,80.33 89.17,81.15 98.07,80.78 C106.98,80.41 124.14,80.05 124.14,80.05 L124.15,67.83 C124.15,67.83 116.8,50.84 115.88,51.02 C114.96,51.2 108.59,66.16 108.59,66.16 C108.59,66.16 106.01,61.44 105.56,61.26 C105.1,61.08 97.88,70.04 97.88,70.04 C97.88,70.04 93.2,56.72 92.46,56.63 C91.73,56.54 82.64,78.76 82.64,78.76 Z" fill="#0A7E1D"/>
  <path d="M91.41,54.25 C90.59,54.25 84.56,68.39 83.73,70.41 C82.9,72.43 80.08,78.98 80.45,79.53 C80.82,80.08 84.25,80.35 84.25,80.35 C84.25,80.35 88.14,69.03 89.79,65.35 C91.44,61.68 93.3,58.04 93.3,58.04 C93.3,58.04 92.26,54.25 91.41,54.25 Z" fill="#02AB47"/>
  <path d="M104.13,59.76 C104.62,59.51 106.24,62.15 106.24,62.15 C106.24,62.15 100.09,72.8 99.63,72.99 C99.17,73.17 97.88,70.05 97.88,70.05 C97.88,70.05 103.02,60.31 104.13,59.76 Z" fill="#02AB47"/>
  <path d="M3.81,112.79 C3.81,112.79 7.83,113.36 10.89,111.24 C15.3,108.18 15.55,104.9 15.55,104.9 C15.55,104.9 16.72,106.54 21.28,106.63 C25.84,106.72 27.8,102.84 27.7,102.31 C27.65,102.05 23.16,96.58 23.16,96.58 L17.9,85.99 L18.51,83.42 L10.81,73.13 L7.77,55.23 C7.77,55.23 6.96,53.53 6.43,53.98 C5.9,54.43 3.83,58.46 3.83,58.46 L3.81,112.79 Z" fill="#0A7E1D"/>
  <path d="M11.52,87.45 C9.74,87.27 8.03,84.76 7.67,78.5 C7.31,72.23 8.03,62.03 7.58,59.26 C7.13,56.49 6.42,53.98 6.42,53.98 C6.42,53.98 6.78,53.08 7.49,54.07 C8.2,55.06 11.97,61.59 13.76,66.06 C15.55,70.54 21.6,81.29 22.53,82.89 C24.15,85.67 25.4,88.02 23.25,88.11 C21.1,88.2 18.14,86.29 18.14,86.29 C18.14,86.29 21.72,93.72 22.79,95.24 C23.86,96.76 26.91,101.24 26.91,101.24 C26.91,101.24 26.37,103.03 23.51,102.22 C20.65,101.41 17.3,94.04 16.53,92.06 C15.78,90.13 15.68,88.41 15.78,87.59 C15.96,86.07 17.25,85.75 17.25,85.75 C17.25,85.75 15.82,84.23 15.1,83.06 C14.38,81.9 13.58,80.29 13.58,80.29 C13.58,80.29 14.21,87.72 11.52,87.45 Z" fill="#00AA48"/>
  <path d="M117.4,76.89 C117.4,76.89 98.96,82.35 98.25,83.16 C97.53,83.97 97.44,85.49 99.15,86.2 C100.86,86.91 101.73,86.4 103.36,87.45 C104.01,87.87 102.51,92.27 102.51,92.27 C102.51,92.27 94.76,94.8 94.63,95.92 C94.47,97.32 95.48,98.64 97.27,99.53 C98.87,100.33 101.18,100.45 101.18,100.45 C101.18,100.45 92.17,107.29 92.61,108.99 C93.06,110.69 94.99,113.52 99.32,113.41 C103.26,113.31 103.88,111.89 106.03,113.5 C108.18,115.11 108.1,118.81 113.91,118.42 C117.94,118.15 118.93,115.6 120.98,114.57 C122.63,113.75 124.17,113.64 124.17,113.64 L124.14,80.04 L117.4,76.89 Z" fill="#0A7E1D"/>
  <path d="M115.34,62.57 C113.28,62.69 112.21,67.85 108.09,72.86 C103.97,77.87 98.21,83.2 98.21,83.2 C98.21,83.2 98.69,84.42 100.13,84.41 C102.19,84.39 103.8,82.53 105.41,83.16 C107.02,83.79 106.75,86.56 109.26,86.74 C111.77,86.92 115.17,83.61 117.4,83.52 C119.64,83.43 119.64,85.76 121.79,85.67 C123.94,85.58 124.15,84.59 124.15,84.59 L124.15,77.77 C124.15,77.77 120.81,73.4 119.46,69.55 C118.12,65.7 116.87,62.48 115.34,62.57 Z" fill="#02AB47"/>
  <path d="M109.35,90.41 C112.39,90.49 115.17,87.64 118.93,87.99 C122.69,88.35 122.87,92.55 122.42,94.26 C121.97,95.96 120.9,98.91 118.12,98.91 C115.35,98.91 115.26,97.3 113.56,97.48 C111.86,97.66 110.7,99.36 108.55,99.09 C106.4,98.82 105.42,96.76 103.81,96.49 C102.2,96.22 99.6,97.74 97.54,97.65 C95.48,97.56 94.61,95.84 94.61,95.84 C94.61,95.84 95.03,94.34 96.46,93.54 C97.89,92.74 99.06,92.2 100.94,90.41 C102.82,88.62 103.35,87.46 103.35,87.46 C103.35,87.46 106.04,90.32 109.35,90.41 Z" fill="#02AB47"/>
  <path d="M105.05,108.66 C108.16,108.66 107.56,113.14 111.4,113.85 C115.25,114.57 120.44,106.78 117.67,102.75 C114.9,98.72 111.4,103.56 107.74,102.66 C104.07,101.76 104.07,100.06 101.3,100.15 C98.53,100.24 92.77,105.59 92.62,108.56 C92.53,110.35 95.39,111.22 98.17,110.8 C100.93,110.39 103.62,108.66 105.05,108.66 Z" fill="#02AB47"/>
  <path d="M20.34,16.11 C20.41,19.64 26.03,20.5 35.32,20.58 C44.61,20.65 50.44,19.86 50.3,16.4 C50.16,12.94 39.57,12.3 34.1,12.08 C28.63,11.86 20.27,12.51 20.34,16.11 Z" fill="#FFFFFE"/>
  <path d="M42.44,29.83 C42.9,32.54 46.76,32.19 52.31,32.29 C58.5,32.41 63.31,32.91 63.7,29.61 C64.09,26.3 56.01,26.64 52.77,26.68 C49.52,26.73 41.89,26.57 42.44,29.83 Z" fill="#FFFFFE"/>
</svg>
